theme/dist/icons/twitter.svg

<svg fill="none" height="24" viewBox="0 0 24 24" width="24" xmlns="http://www.w3.org/2000/svg"><path d="m21.7504 5.96017c-.7172.30937-1.4977.53203-2.3016.61875.8347-.49586 1.4597-1.27922 1.7578-2.20313-.7832.46591-1.6412.79262-2.5359.96563-.374-.39979-.8262-.71827-1.3287-.93561-.5024-.21734-1.0442-.32888-1.5916-.32768-2.2149 0-3.9961 1.79532-3.9961 3.99844 0 .30938.0375.61875.0984.91641-3.31637-.17344-6.27418-1.75781-8.24059-4.1836-.3583.61199-.54606 1.30882-.54375 2.01797 0 1.3875.70547 2.61094 1.78125 3.33045-.63397-.0249-1.2531-.1992-1.80703-.50857v.04922c0 1.94295 1.37344 3.55315 3.2039 3.92345-.34369.0893-.69724.1349-1.05234.1359-.26016 0-.50625-.0258-.75469-.0609.50625 1.5844 1.98047 2.7351 3.73594 2.7726-1.37344 1.0758-3.09375 1.7086-4.96172 1.7086-.33515 0-.64453-.0117-.96562-.0492 1.77187 1.1367 3.87422 1.793 6.13828 1.793 7.34997 0 11.37187-6.0891 11.37187-11.37423 0-.17344 0-.34688-.0117-.52032.7781-.56953 1.4601-1.275 2.0039-2.06718z" fill="#000"/></svg>

<svg width="24" height="24" viewBox="0 0 24 24" fill="none" xmlns="http://www.w3.org/2000/svg"><path d="M21.7504 5.96017C21.0332 6.26954 20.2527 6.4922 19.4488 6.57892 20.2835 6.08306 20.9085 5.2997 21.2066 4.37579 20.4234 4.8417 19.5654 5.16841 18.6707 5.34142 18.2967 4.94163 17.8445 4.62315 17.342 4.40581 16.8396 4.18847 16.2978 4.07693 15.7504 4.07813 13.5355 4.07813 11.7543 5.87345 11.7543 8.07657 11.7543 8.38595 11.7918 8.69532 11.8527 8.99298 8.53633 8.81954 5.57852 7.23517 3.61211 4.80938 3.25381 5.42137 3.06605 6.1182 3.06836 6.82735 3.06836 8.21485 3.77383 9.43829 4.84961 10.1578 4.21564 10.1329 3.59651 9.9586 3.04258 9.64923V9.69845C3.04258 11.6414 4.41602 13.2516 6.24648 13.6219 5.90279 13.7112 5.54924 13.7568 5.19414 13.7578 4.93398 13.7578 4.68789 13.732 4.43945 13.6969 4.9457 15.2813 6.41992 16.432 8.17539 16.4695 6.80195 17.5453 5.08164 18.1781 3.21367 18.1781 2.87852 18.1781 2.56914 18.1664 2.24805 18.1289 4.01992 19.2656 6.12227 19.9219 8.38633 19.9219 15.7363 19.9219 19.7582 13.8328 19.7582 8.54767 19.7582 8.37423 19.7582 8.20079 19.7465 8.02735 20.5246 7.45782 21.2066 6.75235 21.7504 5.96017z" fill="#000"/></svg>
